src/assets/icons/social/whatsapp.svg

<svg xmlns="http://www.w3.org/2000/svg" viewBox="0 0 24 24" fill="currentColor"><path d="M12.001 2C17.5238 2 22.001 6.47715 22.001 12C22.001 17.5228 17.5238 22 12.001 22C10.1671 22 8.44851 21.5064 6.97086 20.6447L2.00516 22L3.35712 17.0315C2.49494 15.5536 2.00098 13.8345 2.00098 12C2.00098 6.47715 6.47813 2 12.001 2ZM8.59339 7.30019L8.39232 7.30833C8.26293 7.31742 8.13607 7.34902 8.02057 7.40811C7.93392 7.45244 7.85348 7.51651 7.72709 7.63586C7.60774 7.74855 7.53857 7.84697 7.46569 7.94186C7.09599 8.4232 6.89729 9.01405 6.90098 9.62098C6.90299 10.1116 7.03043 10.5884 7.23169 11.0336C7.63982 11.9364 8.31288 12.8908 9.20194 13.7759C9.4155 13.9885 9.62473 14.2034 9.85034 14.402C10.9538 15.3736 12.2688 16.0742 13.6907 16.4482C13.6907 16.4482 14.2507 16.5342 14.2589 16.5347C14.4444 16.5447 14.6296 16.5313 14.8153 16.5218C15.1066 16.5068 15.391 16.428 15.6484 16.2909C15.8139 16.2028 15.8922 16.159 16.0311 16.0714C16.0311 16.0714 16.0737 16.0426 16.1559 15.9814C16.2909 15.8808 16.3743 15.81 16.4866 15.6934C16.5694 15.6074 16.6406 15.5058 16.6956 15.3913C16.7738 15.2281 16.8525 14.9166 16.8838 14.6579C16.9077 14.4603 16.9005 14.3523 16.8979 14.2854C16.8936 14.1778 16.8047 14.0671 16.7073 14.0201L16.1258 13.7587C16.1258 13.7587 15.2563 13.3803 14.7245 13.1377C14.6691 13.1124 14.6085 13.1007 14.5476 13.097C14.4142 13.0888 14.2647 13.1236 14.1696 13.2238C14.1646 13.2218 14.0984 13.279 13.3749 14.1555C13.335 14.2032 13.2415 14.3069 13.0798 14.2972C13.0554 14.2955 13.0311 14.292 13.0074 14.2858C12.9419 14.2685 12.8781 14.2457 12.8157 14.2193C12.692 14.1668 12.6486 14.1469 12.5641 14.1105C11.9868 13.8583 11.457 13.5209 10.9887 13.108C10.8631 12.9974 10.7463 12.8783 10.6259 12.7616C10.2057 12.3543 9.86169 11.9211 9.60577 11.4938C9.5918 11.4705 9.57027 11.4368 9.54708 11.3991C9.50521 11.331 9.45903 11.25 9.44455 11.1944C9.40738 11.0473 9.50599 10.9291 9.50599 10.9291C9.50599 10.9291 9.74939 10.663 9.86248 10.5183C9.97128 10.379 10.0652 10.2428 10.125 10.1457C10.2428 9.95633 10.2801 9.76062 10.2182 9.60963C9.93764 8.92565 9.64818 8.24536 9.34986 7.56894C9.29098 7.43545 9.11585 7.33846 8.95659 7.32007C8.90265 7.31384 8.84875 7.30758 8.79459 7.30402C8.66053 7.29748 8.5262 7.29892 8.39232 7.30833L8.59339 7.30019Z"></path></svg>

<svg xmlns="http://www.w3.org/2000/svg" fill="currentColor" viewBox="0 0 24 24"><path d="M12.001 2c5.523 0 10 4.477 10 10s-4.477 10-10 10a9.95 9.95 0 0 1-5.03-1.355L2.005 22l1.352-4.968A9.95 9.95 0 0 1 2.001 12c0-5.523 4.477-10 10-10M8.593 7.3l-.2.008a1 1 0 0 0-.372.1 1.3 1.3 0 0 0-.294.228c-.12.113-.188.211-.261.306A2.73 2.73 0 0 0 6.9 9.62c.002.49.13.967.33 1.413.409.902 1.082 1.857 1.97 2.742.214.213.424.427.65.626a9.45 9.45 0 0 0 3.84 2.046l.568.087c.185.01.37-.004.556-.013a2 2 0 0 0 .833-.231c.166-.088.244-.132.383-.22q.001.002.125-.09c.135-.1.218-.171.33-.288q.126-.13.21-.302c.078-.163.156-.474.188-.733.024-.198.017-.306.014-.373-.004-.107-.093-.218-.19-.265l-.582-.261s-.87-.379-1.402-.621a.5.5 0 0 0-.176-.041.48.48 0 0 0-.378.127c-.005-.002-.072.055-.795.931a.35.35 0 0 1-.368.13 1.4 1.4 0 0 1-.191-.066c-.124-.052-.167-.072-.252-.108a6 6 0 0 1-1.575-1.003c-.126-.11-.243-.23-.363-.346a6.3 6.3 0 0 1-1.02-1.268l-.059-.095a1 1 0 0 1-.102-.205c-.038-.147.061-.265.061-.265s.243-.266.356-.41c.11-.14.203-.276.263-.373.118-.19.155-.385.093-.536q-.42-1.026-.868-2.041c-.059-.134-.234-.23-.393-.249q-.081-.01-.162-.016a3 3 0 0 0-.403.004z"/></svg>
